src/components/Powered/assets/twitter.svg

<svg width="20" height="16" viewBox="0 0 20 16" fill="none" xmlns="http://www.w3.org/2000/svg">
<path fill-rule="evenodd" clip-rule="evenodd" d="M19.6414 1.87974C19.198 2.0688 18.7376 2.21794 18.2653 2.32592C18.7858 1.85041 19.1771 1.25565 19.3979 0.591791V0.591791C19.4609 0.402271 19.2468 0.238388 19.0688 0.339862V0.339862C18.4117 0.714598 17.7038 0.995721 16.9649 1.17551C16.922 1.18594 16.8778 1.19123 16.8334 1.19123C16.6988 1.19123 16.568 1.14318 16.465 1.05598C15.6789 0.389826 14.6677 0.0229492 13.6179 0.0229492C13.1637 0.0229492 12.705 0.0910194 12.2547 0.225288C10.8595 0.641335 9.78295 1.74781 9.44519 3.11296C9.31847 3.62501 9.28417 4.13752 9.34315 4.63624C9.34991 4.69355 9.32173 4.73355 9.30436 4.75231C9.27385 4.78519 9.23059 4.80405 9.18568 4.80405C9.18066 4.80405 9.17551 4.80381 9.1704 4.80335C6.11628 4.53055 3.36222 3.11596 1.41551 0.820189V0.820189C1.31624 0.70309 1.12587 0.717452 1.04675 0.847932V0.847932C0.66553 1.4767 0.464071 2.19586 0.464071 2.92765C0.464071 4.04915 0.932732 5.10604 1.7468 5.87652C1.40446 5.79848 1.07312 5.67558 0.765336 5.51123V5.51123C0.616431 5.4317 0.433219 5.53392 0.431127 5.69766V5.69766C0.409813 7.36372 1.42441 8.8462 2.94431 9.51376C2.91371 9.51446 2.8831 9.51479 2.85244 9.51479C2.61152 9.51479 2.36757 9.49242 2.12748 9.44831V9.44831C1.95979 9.41752 1.81891 9.57046 1.87098 9.72676V9.72676C2.36431 11.2075 3.69045 12.299 5.2774 12.5468C3.96032 13.3968 2.42655 13.8452 0.830202 13.8452L0.332538 13.8449C0.179204 13.8449 0.0495207 13.941 0.0104453 14.0838C-0.0280462 14.2244 0.042854 14.3728 0.173608 14.4459C1.97244 15.4523 4.02427 15.9843 6.10816 15.9843C7.93225 15.9843 9.63852 15.6362 11.1796 14.9499C12.5924 14.3207 13.8409 13.4213 14.8903 12.2767C15.868 11.2104 16.6324 9.97944 17.1625 8.61813C17.6677 7.32049 17.9348 5.93589 17.9348 4.61397V4.551C17.9347 4.33874 18.0346 4.13902 18.2088 4.00307C18.8699 3.48704 19.4455 2.8796 19.9197 2.19764V2.19764C20.0449 2.01757 19.8475 1.79188 19.6414 1.87974V1.87974Z" fill="#84A5CD"/>
</svg>

<svg width="20" height="16" fill="none" xmlns="http://www.w3.org/2000/svg"><path fill-rule="evenodd" clip-rule="evenodd" d="M19.641 1.88c-.443.189-.903.338-1.376.446.52-.476.912-1.07 1.133-1.734.063-.19-.151-.354-.33-.252a8.121 8.121 0 0 1-2.103.836.57.57 0 0 1-.5-.12A4.404 4.404 0 0 0 13.618.023a4.77 4.77 0 0 0-1.363.202c-1.396.416-2.472 1.523-2.81 2.888a4.247 4.247 0 0 0-.102 1.523.145.145 0 0 1-.039.116.162.162 0 0 1-.134.051C6.116 4.531 3.362 3.116 1.416.82a.23.23 0 0 0-.37.028 4.012 4.012 0 0 0-.582 2.08c0 1.121.469 2.178 1.283 2.949a3.95 3.95 0 0 1-.982-.366c-.149-.08-.332.023-.334.187-.021 1.666.993 3.148 2.513 3.816a4.016 4.016 0 0 1-.817-.066c-.167-.03-.308.122-.256.279.493 1.48 1.82 2.572 3.406 2.82A8.168 8.168 0 0 1 .83 13.845H.333a.328.328 0 0 0-.323.239.323.323 0 0 0 .164.362 12.177 12.177 0 0 0 5.934 1.538c1.824 0 3.53-.348 5.072-1.034a11.174 11.174 0 0 0 3.71-2.673 11.638 11.638 0 0 0 2.273-3.659c.505-1.298.772-2.682.772-4.004v-.063c0-.212.1-.412.274-.548a8.303 8.303 0 0 0 1.71-1.805c.126-.18-.072-.406-.278-.318z" fill="#84A5CD"/></svg>
